src/assets/svg/app-icon.svg

<svg width="40" height="40" viewBox="0 0 40 40" fill="none" xmlns="http://www.w3.org/2000/svg">


    <path
        d="M38.8098 27.2796C38.13 28.9594 37.2066 30.468 36.1329 31.8839C34.6504 33.839 32.9363 35.5581 30.7931 36.8522C28.3773 38.3109 25.794 39.2873 22.9913 39.753C19.7137 40.2977 16.5546 39.9227 13.443 38.8237C11.4493 38.1194 9.58096 37.1859 7.91097 35.9389C4.58408 33.4546 2.12811 30.3458 0.936078 26.3448C0.250028 24.0421 -0.0836184 21.7157 0.0178939 19.3274C0.0849888 17.7488 0.435096 16.1811 0.808749 14.6818C0.972978 14.0228 1.07513 13.4773 1.19178 12.8832C1.28966 12.3848 1.38782 11.2393 1.78156 11.3582C2.15012 11.4982 1.86326 12.4819 1.80696 12.9997C1.56988 15.1805 1.37019 17.3673 2.15202 19.4886C3.11369 22.0978 4.67605 24.3346 6.73989 26.2293C9.38402 28.6567 12.5108 30.1767 16.0547 30.9153C18.0939 31.3404 20.1048 31.3049 22.1385 30.8502C23.8078 30.4769 25.3684 29.8522 26.8244 29.0161C29.4522 27.5073 31.2208 25.2483 32.4729 22.5627C33.5333 20.2882 33.8942 17.896 33.6463 15.442C33.3631 12.6388 32.1825 10.191 30.2637 8.07022C29.2071 6.90239 27.8692 6.16802 26.4844 5.4785C26.0064 5.24048 25.0137 4.89748 25.0984 4.65942C25.2285 4.47109 25.4195 4.56599 25.5612 4.60079C28.3424 5.28387 30.9999 6.25848 33.4156 7.79828C34.9307 8.76409 36.2205 9.94896 37.1688 11.4703C37.4128 11.8618 37.7118 12.2206 37.9542 12.6129C39.2096 14.6447 39.8129 16.8555 39.9574 19.2221C40.0749 21.1476 39.9533 23.0448 39.5433 24.9217C39.3709 25.7106 39.0661 26.472 38.8098 27.2796Z"
        fill="#5431FF" />
    <path
        d="M18.0764 3.74297C15.4445 4.41865 13.2193 5.72393 11.3458 7.5741C9.14868 9.74396 7.91606 12.3972 7.48336 15.4073C7.11813 17.9479 7.53066 20.3919 8.66149 22.6883C9.34326 24.0728 10.3637 25.2504 11.514 26.3061C11.6849 26.463 11.873 26.6023 12.0557 26.7466C12.2796 26.9235 12.271 27.1301 12.1569 27.3624C12.0247 27.6313 11.816 27.5215 11.6327 27.4615C10.4523 27.0754 9.4259 26.4157 8.5311 25.5991C7.08401 24.2786 5.80746 22.8093 4.88502 21.0775C3.58022 18.6279 3.11598 16.0509 3.54707 13.3036C3.81274 11.6105 4.20979 9.96731 5.04588 8.45706C6.17362 6.41996 7.74255 4.75602 9.64558 3.37674C11.8241 1.79777 14.2713 0.814668 16.9006 0.271292C18.6751 -0.0954416 20.4834 -0.0569989 22.2762 0.188453C24.6546 0.514068 26.9104 1.25248 29.0225 2.35247C30.2201 2.97616 31.3784 3.69367 32.3566 4.63838C32.6137 4.88667 32.9102 5.1447 32.7482 5.55309C32.6129 5.62118 32.5264 5.57544 32.4568 5.51481C31.4198 4.61242 30.1161 4.19058 28.8479 3.80452C26.4568 3.07666 23.9832 2.8539 21.4745 3.10552C20.3333 3.22 19.2328 3.51949 18.0764 3.74297Z"
        fill="#5431FF" />
    <path
        d="M23.4431 24.8026C20.194 25.7669 17.1896 25.4921 14.5284 23.3249C13.6219 22.5867 13.0083 21.6211 12.5008 20.5952C11.6542 18.8841 11.3969 17.0823 11.8622 15.2358C12.5458 12.5227 14.0651 10.4492 16.6775 9.12095C19.2994 7.78786 23.8185 8.22591 26.2085 10.9229C28.3787 13.3719 29.2517 16.1607 28.3577 19.3528C28.1308 20.163 27.7774 20.956 27.2617 21.6284C26.2473 22.9508 25.144 24.2003 23.4431 24.8026ZM16.8389 22.2784C17.2266 22.5749 17.6582 22.7844 18.1371 22.8975C19.1455 23.1355 20.1507 23.27 21.2008 23.1222C22.877 22.8863 24.2458 22.1343 25.2078 20.8069C27.3013 17.9182 26.6041 13.6619 23.8161 11.7258C21.9305 10.4164 19.4423 9.97102 17.3413 11.2512C16.5205 11.7512 15.6801 12.2301 15.1285 13.0578C14.6344 13.7992 14.3762 14.6216 14.1356 15.4616C13.3803 18.0991 14.4162 20.7777 16.8389 22.2784Z"
        fill="#5431FF" />
</svg>

<svg width="40" height="40" fill="none" xmlns="http://www.w3.org/2000/svg"><path d="M38.81 27.28c-.68 1.68-1.603 3.188-2.677 4.604-1.483 1.955-3.197 3.674-5.34 4.968-2.416 1.459-4.999 2.435-7.802 2.901-3.277.545-6.436.17-9.548-.93-1.994-.704-3.862-1.637-5.532-2.884-3.327-2.484-5.783-5.593-6.975-9.594-.686-2.303-1.02-4.63-.918-7.018.067-1.578.417-3.146.79-4.645.165-.66.267-1.205.384-1.799.098-.498.196-1.644.59-1.525.368.14.081 1.124.025 1.642-.237 2.18-.437 4.367.345 6.489.962 2.609 2.524 4.846 4.588 6.74 2.644 2.428 5.77 3.948 9.315 4.686 2.039.425 4.05.39 6.084-.065 1.669-.373 3.23-.998 4.685-1.834 2.628-1.509 4.397-3.768 5.649-6.453 1.06-2.275 1.421-4.667 1.173-7.121-.283-2.803-1.464-5.251-3.382-7.372-1.057-1.168-2.395-1.902-3.78-2.591-.478-.239-1.47-.582-1.386-.82.13-.188.322-.093.463-.058 2.781.683 5.439 1.657 7.855 3.197 1.515.966 2.805 2.151 3.753 3.672.244.392.543.75.785 1.143 1.256 2.032 1.859 4.242 2.003 6.61.118 1.925-.004 3.822-.414 5.699-.172.789-.477 1.55-.733 2.358z" fill="#5431FF"/><path d="M18.076 3.743c-2.632.676-4.857 1.98-6.73 3.831-2.197 2.17-3.43 4.823-3.863 7.833-.365 2.54.048 4.985 1.178 7.281.682 1.385 1.703 2.562 2.853 3.618.17.157.359.296.542.44.224.178.215.384.1.616-.131.27-.34.16-.523.1-1.18-.387-2.207-1.046-3.102-1.863-1.447-1.32-2.724-2.79-3.646-4.521-1.305-2.45-1.769-5.027-1.338-7.774.266-1.694.663-3.337 1.499-4.847 1.128-2.037 2.697-3.701 4.6-5.08C11.824 1.797 14.27.815 16.9.27c1.774-.366 3.582-.328 5.375-.083a20.59 20.59 0 0 1 6.747 2.164c1.197.624 2.355 1.342 3.334 2.286.257.249.553.507.391.915-.135.068-.222.022-.291-.038-1.037-.903-2.34-1.324-3.61-1.71-2.39-.728-4.864-.951-7.373-.7-1.14.115-2.241.414-3.398.638z" fill="#5431FF"/><path d="M23.443 24.803c-3.249.964-6.253.69-8.915-1.478-.906-.738-1.52-1.704-2.027-2.73-.847-1.71-1.104-3.513-.639-5.36.684-2.712 2.203-4.786 4.815-6.114 2.622-1.333 7.142-.895 9.532 1.802 2.17 2.449 3.043 5.238 2.149 8.43-.227.81-.58 1.603-1.096 2.275-1.015 1.323-2.118 2.572-3.819 3.175zm-6.604-2.525c.388.297.82.506 1.298.62 1.008.238 2.014.372 3.064.224 1.676-.236 3.045-.988 4.007-2.315 2.093-2.889 1.396-7.145-1.392-9.081-1.886-1.31-4.374-1.755-6.475-.475-.82.5-1.66.98-2.213 1.807-.494.741-.752 1.564-.992 2.404-.756 2.637.28 5.316 2.703 6.816z" fill="#5431FF"/></svg>
